build/img/icon-umbrella.svg

<svg width="43" height="48" viewBox="0 0 43 48" fill="none" xmlns="http://www.w3.org/2000/svg">
<path d="M23 3.33V2C23 1.46957 22.7893 0.960859 22.4142 0.585786C22.0391 0.210714 21.5304 0 21 0C20.4696 0 19.9609 0.210714 19.5858 0.585786C19.2107 0.960859 19 1.46957 19 2V3.33C13.7995 3.84114 8.97478 6.26742 5.46338 10.1374C1.95198 14.0073 0.00471991 19.0445 3.40617e-06 24.27C-0.000589996 24.5916 0.0763591 24.9085 0.224327 25.194C0.372295 25.4795 0.586919 25.7251 0.850003 25.91C1.11333 26.094 1.41712 26.2119 1.73566 26.2537C2.0542 26.2955 2.37812 26.2599 2.68 26.15C7.92278 24.2009 13.666 24.0566 19 25.74V41.91C19 42.4643 18.7798 42.9959 18.3879 43.3879C17.9959 43.7798 17.4643 44 16.91 44C16.3557 44 15.8241 43.7798 15.4322 43.3879C15.0402 42.9959 14.82 42.4643 14.82 41.91C14.82 41.3796 14.6093 40.8709 14.2342 40.4958C13.8591 40.1207 13.3504 39.91 12.82 39.91C12.2896 39.91 11.7809 40.1207 11.4058 40.4958C11.0307 40.8709 10.82 41.3796 10.82 41.91C10.82 42.7098 10.9775 43.5017 11.2836 44.2405C11.5896 44.9794 12.0382 45.6508 12.6037 46.2163C13.1692 46.7818 13.8406 47.2304 14.5795 47.5364C15.3183 47.8425 16.1103 48 16.91 48C17.7098 48 18.5017 47.8425 19.2405 47.5364C19.9794 47.2304 20.6508 46.7818 21.2163 46.2163C21.7818 45.6508 22.2304 44.9794 22.5364 44.2405C22.8425 43.5017 23 42.7098 23 41.91V25.74C28.3463 24.0474 34.1052 24.1918 39.36 26.15C39.6619 26.2599 39.9858 26.2955 40.3043 26.2537C40.6229 26.2119 40.9267 26.094 41.19 25.91C41.4531 25.7251 41.6677 25.4795 41.8157 25.194C41.9636 24.9085 42.0406 24.5916 42.04 24.27C42.0343 19.0382 40.0815 13.9958 36.5618 10.1249C33.0421 6.25404 28.2077 3.83181 23 3.33ZM21 22.17C15.5812 20.3176 9.74068 20.0814 4.19 21.49C4.78959 17.4591 6.81727 13.7776 9.90364 11.1164C12.99 8.45513 16.9297 6.99115 21.005 6.99115C25.0803 6.99115 29.02 8.45513 32.1064 11.1164C35.1927 13.7776 37.2204 17.4591 37.82 21.49C32.266 20.0811 26.4222 20.3174 21 22.17Z" fill="white"/>
</svg>

<svg width="43" height="48" fill="none" xmlns="http://www.w3.org/2000/svg"><path d="M23 3.33V2a2 2 0 10-4 0v1.33A21.06 21.06 0 000 24.27a2 2 0 001.736 1.984 2 2 0 00.944-.104A25.13 25.13 0 0119 25.74v16.17a2.09 2.09 0 01-4.18 0 2 2 0 00-4 0 6.088 6.088 0 008.42 5.626A6.09 6.09 0 0023 41.91V25.74a25.13 25.13 0 0116.36.41 2 2 0 002.456-.956 2 2 0 00.224-.924A21.06 21.06 0 0023 3.33zm-2 18.84a29.52 29.52 0 00-16.81-.68 17 17 0 0133.63 0 29.55 29.55 0 00-16.82.68z" fill="#fff"/></svg>
